; G-Code generated by Simplify3D(R) Version 4.1.1
; Jul 28, 2020 at 9:54:29 PM
; Settings Summary
;   processName,Process1
;   applyToModels,Screen2
;   profileName,Hypercube (modified)
;   profileVersion,2020-06-29 02:19:08
;   baseProfile,Default
;   printMaterial,PLA
;   printQuality,Medium
;   printExtruders,
;   extruderName,Extruder 1
;   extruderToolheadNumber,0
;   extruderDiameter,0.4
;   extruderAutoWidth,1
;   extruderWidth,0.48
;   extrusionMultiplier,1
;   extruderUseRetract,1
;   extruderRetractionDistance,1
;   extruderExtraRestartDistance,0
;   extruderRetractionZLift,0
;   extruderRetractionSpeed,1800
;   extruderUseCoasting,1
;   extruderCoastingDistance,0.2
;   extruderUseWipe,0
;   extruderWipeDistance,5
;   primaryExtruder,0
;   layerHeight,0.2
;   topSolidLayers,3
;   bottomSolidLayers,3
;   perimeterOutlines,2
;   printPerimetersInsideOut,1
;   startPointOption,2
;   startPointOriginX,0
;   startPointOriginY,0
;   sequentialIslands,0
;   spiralVaseMode,0
;   firstLayerHeightPercentage,100
;   firstLayerWidthPercentage,100
;   firstLayerUnderspeed,0.5
;   useRaft,0
;   raftExtruder,0
;   raftTopLayers,3
;   raftBaseLayers,2
;   raftOffset,3
;   raftSeparationDistance,0.14
;   raftTopInfill,100
;   aboveRaftSpeedMultiplier,0.3
;   useSkirt,1
;   skirtExtruder,0
;   skirtLayers,1
;   skirtOutlines,10
;   skirtOffset,0
;   usePrimePillar,0
;   primePillarExtruder,999
;   primePillarWidth,12
;   primePillarLocation,7
;   primePillarSpeedMultiplier,1
;   useOozeShield,0
;   oozeShieldExtruder,999
;   oozeShieldOffset,2
;   oozeShieldOutlines,1
;   oozeShieldSidewallShape,1
;   oozeShieldSidewallAngle,30
;   oozeShieldSpeedMultiplier,1
;   infillExtruder,0
;   internalInfillPattern,Rectilinear
;   externalInfillPattern,Rectilinear
;   infillPercentage,25
;   outlineOverlapPercentage,15
;   infillExtrusionWidthPercentage,100
;   minInfillLength,5
;   infillLayerInterval,1
;   internalInfillAngles,45,-45
;   overlapInternalInfillAngles,0
;   externalInfillAngles,45,-45
;   generateSupport,0
;   supportExtruder,0
;   supportInfillPercentage,30
;   supportExtraInflation,0
;   supportBaseLayers,0
;   denseSupportExtruder,0
;   denseSupportLayers,0
;   denseSupportInfillPercentage,70
;   supportLayerInterval,1
;   supportHorizontalPartOffset,0.3
;   supportUpperSeparationLayers,1
;   supportLowerSeparationLayers,1
;   supportType,0
;   supportGridSpacing,4
;   maxOverhangAngle,55
;   supportAngles,0
;   temperatureName,Extruder 1,Heated Bed
;   temperatureNumber,0,0
;   temperatureSetpointCount,1,1
;   temperatureSetpointLayers,1,1
;   temperatureSetpointTemperatures,215,70
;   temperatureStabilizeAtStartup,1,1
;   temperatureHeatedBed,0,1
;   fanLayers,1,2
;   fanSpeeds,0,100
;   blipFanToFullPower,0
;   adjustSpeedForCooling,1
;   minSpeedLayerTime,15
;   minCoolingSpeedSlowdown,20
;   increaseFanForCooling,0
;   minFanLayerTime,45
;   maxCoolingFanSpeed,100
;   increaseFanForBridging,0
;   bridgingFanSpeed,100
;   use5D,1
;   relativeEdistances,0
;   allowEaxisZeroing,1
;   independentExtruderAxes,0
;   includeM10123,0
;   stickySupport,1
;   applyToolheadOffsets,0
;   gcodeXoffset,0
;   gcodeYoffset,0
;   gcodeZoffset,0
;   overrideMachineDefinition,1
;   machineTypeOverride,0
;   strokeXoverride,435
;   strokeYoverride,465
;   strokeZoverride,395
;   originOffsetXoverride,0
;   originOffsetYoverride,0
;   originOffsetZoverride,0
;   homeXdirOverride,-1
;   homeYdirOverride,-1
;   homeZdirOverride,-1
;   flipXoverride,1
;   flipYoverride,1
;   flipZoverride,1
;   toolheadOffsets,0,0|0,0|0,0|0,0|0,0|0,0
;   overrideFirmwareConfiguration,1
;   firmwareTypeOverride,RepRap (Marlin/Repetier/Sprinter)
;   GPXconfigOverride,r2
;   baudRateOverride,115200
;   overridePrinterModels,0
;   printerModelsOverride
;   startingGcode,G28 ; home all axes,G1 Z5 F5000 ; lift Z by 5mm,M190 S[bed0_temperature] ; Wait for Bed Temperature,M109 S[extruder0_temperature] T0 ; set extruder temperature and wait for temp,G1 X0 Y20 Z0.2 F3000 ; get ready to prime,G92 E0 ; set extruder distance at zero,G92 E0 ; reset extruder distance to zero
;   layerChangeGcode,
;   retractionGcode,
;   toolChangeGcode,
;   endingGcode,M104 S0 ; turn off extruder,M140 S0 ; turn off bed,G1 X0 Y0 F1000 ; prepare for part removal,M84 ; disable motors
;   exportFileFormat,gcode
;   celebration,0
;   celebrationSong,Random Song
;   postProcessing,curl -k -H "X-Api-Key: CC82CA89D8C54E37AD6D4ED1BE10E70E" -F "select=false" -F "print=false" -F "file=@[output_filepath]" "http://192.168.1.11/api/files/local"
;   defaultSpeed,3600
;   outlineUnderspeed,0.5
;   solidInfillUnderspeed,0.8
;   supportUnderspeed,0.8
;   rapidXYspeed,4800
;   rapidZspeed,1000
;   minBridgingArea,50
;   bridgingExtraInflation,0
;   bridgingExtrusionMultiplier,1
;   bridgingSpeedMultiplier,1
;   useFixedBridgingAngle,0
;   fixedBridgingAngle,0
;   applyBridgingToPerimeters,0
;   filamentDiameters,1.75|1.75|1.75|1.75|1.75|1.75
;   filamentPricesPerKg,46|46|46|46|46|46
;   filamentDensities,1.25|1.25|1.25|1.25|1.25|1.25
;   useMinPrintHeight,0
;   minPrintHeight,0
;   useMaxPrintHeight,0
;   maxPrintHeight,1.5
;   useDiaphragm,0
;   diaphragmLayerInterval,20
;   robustSlicing,1
;   mergeAllIntoSolid,0
;   onlyRetractWhenCrossingOutline,1
;   retractBetweenLayers,1
;   useRetractionMinTravel,0
;   retractionMinTravel,3
;   retractWhileWiping,0
;   onlyWipeOutlines,1
;   avoidCrossingOutline,1
;   maxMovementDetourFactor,3
;   toolChangeRetractionDistance,12
;   toolChangeExtraRestartDistance,-0.5
;   toolChangeRetractionSpeed,600
;   externalThinWallType,0
;   internalThinWallType,2
;   thinWallAllowedOverlapPercentage,10
;   singleExtrusionMinLength,1
;   singleExtrusionMinPrintingWidthPercentage,50
;   singleExtrusionMaxPrintingWidthPercentage,200
;   singleExtrusionEndpointExtension,0.2
;   horizontalSizeCompensation,0
G90
M82
M106 S0
G28 ; home all axes
G1 Z5 F5000 ; lift Z by 5mm
M190 S70 ; Wait for Bed Temperature
M109 S215 T0 ; set extruder temperature and wait for temp
G1 X0 Y20 Z0.2 F3000 ; get ready to prime
G92 E0 ; set extruder distance at zero
G92 E0 ; reset extruder distance to zero
; process Process1
; layer 1, Z = 0.200
T0
G92 E0.0000
G1 E-1.0000 F1800
; feature skirt
; tool H0.200 W0.480
G1 Z0.200 F1000
G1 X140.550 Y186.662 F4800
G1 E0.0000 F1800
G92 E0.0000
G1 X216.278 Y142.940 E3.4901 F1800
G1 X218.722 Y142.940 E3.5876
G1 X294.450 Y186.662 E7.0777
G1 X295.672 Y188.778 E7.1752
G1 X295.672 Y276.222 E10.6653
G1 X294.450 Y278.338 E10.7628
G1 X218.722 Y322.060 E14.2529
G1 X216.278 Y322.060 E14.3504
G1 X140.550 Y278.338 E17.8405
G1 X139.328 Y276.222 E17.9380
G1 X139.328 Y188.778 E21.4281
G1 X140.550 Y186.662 E21.5256
G92 E0.0000
G1 E-1.0000 F1800
G1 X140.901 Y187.013 F4800
G1 E0.0000 F1800
G92 E0.0000
G1 X216.407 Y143.420 E3.4798 F1800
G1 X218.593 Y143.420 E3.5671
G1 X294.099 Y187.013 E7.0469
G1 X295.192 Y188.907 E7.1341
G1 X295.192 Y276.093 E10.6139
G1 X294.099 Y277.987 E10.7012
G1 X218.593 Y321.580 E14.1810
G1 X216.407 Y321.580 E14.2683
G1 X140.901 Y277.987 E17.7481
G1 X139.808 Y276.093 E17.8353
G1 X139.808 Y188.907 E21.3151
G1 X140.901 Y187.013 E21.4024
G92 E0.0000
G1 E-1.0000 F1800
G1 X141.252 Y187.365 F4800
G1 E0.0000 F1800
G92 E0.0000
G1 X216.535 Y143.900 E3.4695 F1800
G1 X218.465 Y143.900 E3.5465
G1 X293.748 Y187.365 E7.0161
G1 X294.712 Y189.035 E7.0931
G1 X294.712 Y275.965 E10.5626
G1 X293.748 Y277.635 E10.6396
G1 X218.465 Y321.100 E14.1091
G1 X216.535 Y321.100 E14.1861
G1 X141.252 Y277.635 E17.6557
G1 X140.288 Y275.965 E17.7327
G1 X140.288 Y189.035 E21.2022
G1 X141.252 Y187.365 E21.2792
G92 E0.0000
G1 E-1.0000 F1800
G1 X141.604 Y187.716 F4800
G1 E0.0000 F1800
G92 E0.0000
G1 X216.664 Y144.380 E3.4593 F1800
G1 X218.336 Y144.380 E3.5260
G1 X293.396 Y187.716 E6.9853
G1 X294.232 Y189.164 E7.0520
G1 X294.232 Y275.836 E10.5113
G1 X293.396 Y277.284 E10.5780
G1 X218.336 Y320.620 E14.0373
G1 X216.664 Y320.620 E14.1040
G1 X141.604 Y277.284 E17.5633
G1 X140.768 Y275.836 E17.6300
G1 X140.768 Y189.164 E21.0893
G1 X141.604 Y187.716 E21.1560
G92 E0.0000
G1 E-1.0000 F1800
G1 X141.955 Y188.067 F4800
G1 E0.0000 F1800
G92 E0.0000
G1 X216.793 Y144.860 E3.4490 F1800
G1 X218.207 Y144.860 E3.5055
G1 X293.045 Y188.067 E6.9545
G1 X293.752 Y189.293 E7.0109
G1 X293.752 Y275.707 E10.4599
G1 X293.045 Y276.933 E10.5164
G1 X218.207 Y320.140 E13.9654
G1 X216.793 Y320.140 E14.0219
G1 X141.955 Y276.933 E17.4709
G1 X141.248 Y275.707 E17.5273
G1 X141.248 Y189.293 E20.9763
G1 X141.955 Y188.067 E21.0328
G92 E0.0000
G1 E-1.0000 F1800
G1 X142.307 Y188.419 F4800
G1 E0.0000 F1800
G92 E0.0000
G1 X216.921 Y145.340 E3.4387 F1800
G1 X218.079 Y145.340 E3.4849
G1 X292.693 Y188.419 E6.9237
G1 X293.272 Y189.421 E6.9699
G1 X293.272 Y275.579 E10.4086
G1 X292.693 Y276.581 E10.4548
G1 X218.079 Y319.660 E13.8935
G1 X216.921 Y319.660 E13.9397
G1 X142.307 Y276.581 E17.3785
G1 X141.728 Y275.579 E17.4247
G1 X141.728 Y189.421 E20.8634
G1 X142.307 Y188.419 E20.9096
G92 E0.0000
G1 E-1.0000 F1800
G1 X142.658 Y188.770 F4800
G1 E0.0000 F1800
G92 E0.0000
G1 X217.050 Y145.820 E3.4285 F1800
G1 X217.950 Y145.820 E3.4644
G1 X292.342 Y188.770 E6.8929
G1 X292.792 Y189.550 E6.9288
G1 X292.792 Y275.450 E10.3573
G1 X292.342 Y276.230 E10.3932
G1 X217.950 Y319.180 E13.8217
G1 X217.050 Y319.180 E13.8576
G1 X142.658 Y276.230 E17.2861
G1 X142.208 Y275.450 E17.3220
G1 X142.208 Y189.550 E20.7505
G1 X142.658 Y188.770 E20.7864
G92 E0.0000
G1 E-1.0000 F1800
G1 X143.009 Y189.122 F4800
G1 E0.0000 F1800
G92 E0.0000
G1 X217.178 Y146.300 E3.4182 F1800
G1 X217.822 Y146.300 E3.4439
G1 X291.991 Y189.122 E6.8621
G1 X292.312 Y189.678 E6.8877
G1 X292.312 Y275.322 E10.3059
G1 X291.991 Y275.878 E10.3316
G1 X217.822 Y318.700 E13.7498
G1 X217.178 Y318.700 E13.7755
G1 X143.009 Y275.878 E17.1937
G1 X142.688 Y275.322 E17.2193
G1 X142.688 Y189.678 E20.6375
G1 X143.009 Y189.122 E20.6632
G92 E0.0000
G1 E-1.0000 F1800
G1 X143.361 Y189.473 F4800
G1 E0.0000 F1800
G92 E0.0000
G1 X217.307 Y146.780 E3.4079 F1800
G1 X217.693 Y146.780 E3.4233
G1 X291.639 Y189.473 E6.8313
G1 X291.832 Y189.807 E6.8467
G1 X291.832 Y275.193 E10.2546
G1 X291.639 Y275.527 E10.2700
G1 X217.693 Y318.220 E13.6779
G1 X217.307 Y318.220 E13.6933
G1 X143.361 Y275.527 E17.1013
G1 X143.168 Y275.193 E17.1167
G1 X143.168 Y189.807 E20.5246
G1 X143.361 Y189.473 E20.5400
G92 E0.0000
G1 E-1.0000 F1800
G1 X143.712 Y189.824 F4800
G1 E0.0000 F1800
G92 E0.0000
G1 X217.436 Y147.260 E3.3977 F1800
G1 X217.564 Y147.260 E3.4028
G1 X291.288 Y189.824 E6.8005
G1 X291.352 Y189.936 E6.8056
G1 X291.352 Y275.064 E10.2033
G1 X291.288 Y275.176 E10.2084
G1 X217.564 Y317.740 E13.6061
G1 X217.436 Y317.740 E13.6112
G1 X143.712 Y275.176 E17.0089
G1 X143.648 Y275.064 E17.0140
G1 X143.648 Y189.936 E20.4117
G1 X143.712 Y189.824 E20.4168
G92 E0.0000
G1 E-1.0000 F1800
; feature inner perimeter
G1 X144.128 Y190.139 F4800
G1 X144.160 Y190.120
G1 X144.608 Y190.416
G1 E0.0000 F1800
G92 E0.0000
G1 X217.500 Y148.331 E3.3594 F1350
G1 X290.392 Y190.416 E6.7187
G1 X290.392 Y274.584 E10.0781
G1 X217.500 Y316.669 E13.4374
G1 X144.608 Y274.584 E16.7968
G1 X144.608 Y190.616 E20.1481
G1 X144.608 Y190.416 F1350
; feature outer perimeter
G1 X144.128 Y190.139 F4800
G92 E0.0000
G1 X217.500 Y147.777 E3.3815 F900
G1 X290.872 Y190.139 E6.7629
G1 X290.872 Y274.861 E10.1444
G1 X217.500 Y317.223 E13.5259
G1 X144.128 Y274.861 E16.9074
G1 X144.128 Y190.339 E20.2809
G1 X144.128 Y190.139 F900
; feature solid layer
G1 X145.704 Y274.746 F4800
G92 E0.0000
G1 X145.016 Y274.058 E0.0388 F1440
G1 X145.016 Y273.379 E0.0659
G1 X147.310 Y275.673 E0.1954
G1 X148.916 Y276.600 E0.2694
G1 X145.016 Y272.700 E0.4896
G1 X145.016 Y272.022 E0.5167
G1 X150.522 Y277.528 E0.8275
G1 X152.128 Y278.455 E0.9015
G1 X145.016 Y271.343 E1.3029
G1 X145.016 Y270.664 E1.3300
G1 X153.734 Y279.382 E1.8221
G1 X155.340 Y280.310 E1.8961
G1 X145.016 Y269.985 E2.4789
G1 X145.016 Y269.306 E2.5060
G1 X156.947 Y281.237 E3.1794
G1 X158.553 Y282.164 E3.2534
G1 X145.016 Y268.627 E4.0175
G1 X145.016 Y267.949 E4.0446
G1 X160.159 Y283.092 E4.8993
G1 X161.765 Y284.019 E4.9734
G1 X145.016 Y267.270 E5.9188
G1 X145.016 Y266.591 E5.9458
G1 X163.371 Y284.946 E6.9819
G1 X164.977 Y285.873 E7.0559
G1 X145.016 Y265.912 E8.1826
G1 X145.016 Y265.233 E8.2097
G1 X166.583 Y286.801 E9.4271
G1 X168.189 Y287.728 E9.5011
G1 X145.016 Y264.554 E10.8091
G1 X145.016 Y263.876 E10.8362
G1 X169.795 Y288.655 E12.2348
G1 X171.402 Y289.583 E12.3089
G1 X145.016 Y263.197 E13.7982
G1 X145.016 Y262.518 E13.8253
G1 X173.008 Y290.510 E15.4053
G1 X174.614 Y291.437 E15.4793
G1 X145.016 Y261.839 E17.1499
G1 X145.016 Y261.160 E17.1770
G1 X176.220 Y292.364 E18.9383
G1 X177.826 Y293.292 E19.0123
G1 X145.016 Y260.482 E20.8643
G1 X145.016 Y259.803 E20.8914
G1 X179.432 Y294.219 E22.8340
G1 X181.038 Y295.146 E22.9080
G1 X145.016 Y259.124 E24.9412
G1 X145.016 Y258.445 E24.9683
G1 X182.644 Y296.074 E27.0922
G1 X184.250 Y297.001 E27.1663
G1 X145.016 Y257.766 E29.3808
G1 X145.016 Y257.087 E29.4079
G1 X185.857 Y297.928 E31.7132
G1 X187.463 Y298.855 E31.7872
G1 X145.016 Y256.409 E34.1831
G1 X145.016 Y255.730 E34.2102
G1 X189.069 Y299.783 E36.6967
G1 X190.675 Y300.710 E36.7707
G1 X145.016 Y255.051 E39.3479
G1 X145.016 Y254.372 E39.3750
G1 X192.281 Y301.637 E42.0428
G1 X193.887 Y302.565 E42.1169
G1 X145.016 Y253.693 E44.8754
G1 X145.016 Y253.015 E44.9025
G1 X195.493 Y303.492 E47.7516
G1 X197.099 Y304.419 E47.8256
G1 X145.016 Y252.336 E50.7655
G1 X145.016 Y251.657 E50.7926
G1 X198.705 Y305.346 E53.8230
G1 X200.312 Y306.274 E53.8971
G1 X145.016 Y250.978 E57.0182
G1 X145.016 Y250.299 E57.0453
G1 X201.918 Y307.201 E60.2571
G1 X203.524 Y308.128 E60.3311
G1 X145.016 Y249.620 E63.6335
G1 X145.016 Y248.942 E63.6606
G1 X205.130 Y309.056 E67.0537
G1 X206.736 Y309.983 E67.1277
G1 X145.016 Y248.263 E70.6115
G1 X145.016 Y247.584 E70.6386
G1 X208.342 Y310.910 E74.2130
G1 X209.948 Y311.837 E74.2870
G1 X145.016 Y246.905 E77.9521
G1 X145.016 Y246.226 E77.9792
G1 X211.554 Y312.765 E81.7349
G1 X213.160 Y313.692 E81.8089
G1 X145.016 Y245.547 E85.6553
G1 X145.016 Y244.869 E85.6824
G1 X214.767 Y314.619 E89.6194
G1 X216.373 Y315.547 E89.6934
G1 X145.016 Y244.190 E93.7211
G1 X145.016 Y243.511 E93.7482
G1 X217.628 Y316.123 E97.8468
G1 X218.059 Y315.875 E97.8666
G1 X145.016 Y242.832 E101.9895
G1 X145.016 Y242.153 E102.0165
G1 X218.489 Y315.626 E106.1637
G1 X218.919 Y315.378 E106.1835
G1 X145.016 Y241.475 E110.3550
G1 X145.016 Y240.796 E110.3820
G1 X219.350 Y315.130 E114.5778
G1 X219.780 Y314.881 E114.5976
G1 X145.016 Y240.117 E118.8176
G1 X145.016 Y239.438 E118.8447
G1 X220.210 Y314.633 E123.0890
G1 X220.641 Y314.384 E123.1089
G1 X145.016 Y238.759 E127.3775
G1 X145.016 Y238.080 E127.4045
G1 X221.071 Y314.136 E131.6974
G1 X221.501 Y313.887 E131.7173
G1 X145.016 Y237.402 E136.0345
G1 X145.016 Y236.723 E136.0615
G1 X221.932 Y313.639 E140.4030
G1 X222.362 Y313.390 E140.4229
G1 X145.016 Y236.044 E144.7886
G1 X145.016 Y235.365 E144.8157
G1 X222.793 Y313.142 E149.2058
G1 X223.223 Y312.893 E149.2256
G1 X145.016 Y234.686 E153.6399
G1 X145.016 Y234.007 E153.6670
G1 X223.653 Y312.645 E158.1057
G1 X224.084 Y312.396 E158.1255
G1 X145.016 Y233.329 E162.5884
G1 X145.016 Y232.650 E162.6155
G1 X224.514 Y312.148 E167.1027
G1 X224.944 Y311.900 E167.1226
G1 X145.016 Y231.971 E171.6341
G1 X145.016 Y231.292 E171.6612
G1 X225.375 Y311.651 E176.1970
G1 X225.805 Y311.403 E176.2168
G1 X145.016 Y230.613 E180.7769
G1 X145.016 Y229.935 E180.8040
G1 X226.235 Y311.154 E185.3884
G1 X226.666 Y310.906 E185.4082
G1 X145.016 Y229.256 E190.0169
G1 X145.016 Y228.577 E190.0440
G1 X227.096 Y310.657 E194.6770
G1 X227.526 Y310.409 E194.6968
G1 X145.016 Y227.898 E199.3540
G1 X145.016 Y227.219 E199.3811
G1 X227.957 Y310.160 E204.0627
G1 X228.387 Y309.912 E204.0825
G1 X145.016 Y226.540 E208.7884
G1 X145.016 Y225.862 E208.8155
G1 X228.818 Y309.663 E213.5456
G1 X229.248 Y309.415 E213.5654
G1 X145.016 Y225.183 E218.3198
G1 X145.016 Y224.504 E218.3469
G1 X229.678 Y309.166 E223.1256
G1 X230.109 Y308.918 E223.1455
G1 X145.016 Y223.825 E227.9485
G1 X145.016 Y223.146 E227.9756
G1 X230.539 Y308.669 E232.8029
